img/icons/page/page-text.svg

<svg viewBox="0 0 16 16" xmlns="http://www.w3.org/2000/svg"><path d="m5 6.5c0-0.276 0.224-0.5 0.5-0.5h5c0.276 0 0.5 0.224 0.5 0.5 0 0.276-0.224 0.5-0.5 0.5h-5c-0.276 0-0.5-0.224-0.5-0.5z" fill="#000"/><path d="m5.5 9c-0.276 0-0.5 0.224-0.5 0.5 0 0.276 0.224 0.5 0.5 0.5h5c0.276 0 0.5-0.224 0.5-0.5 0-0.276-0.224-0.5-0.5-0.5h-5z" fill="#000"/><path d="m5 12.5c0-0.276 0.224-0.5 0.5-0.5h5c0.276 0 0.5 0.224 0.5 0.5 0 0.276-0.224 0.5-0.5 0.5h-5c-0.276 0-0.5-0.224-0.5-0.5z" fill="#000"/><path d="m5.5 3c-0.276 0-0.5 0.224-0.5 0.5 0 0.276 0.224 0.5 0.5 0.5h2.5v-1h-2.5z" fill="#000"/><path d="m14 4.57c0.0032-0.0226 0.0048-0.0458 0.0048-0.0693 0-0.0583-0.01-0.114-0.0283-0.166-0.0038-0.0212-0.0082-0.042-0.0131-0.0626-0.0368-0.153-0.0974-0.299-0.18-0.434-0.0928-0.151-0.222-0.281-0.482-0.541l-2.59-2.59c-0.259-0.259-0.389-0.389-0.54-0.482-0.134-0.0822-0.28-0.143-0.434-0.18-0.0206-0.00495-0.0414-0.00931-0.0626-0.0131-0.052-0.0183-0.108-0.0283-0.166-0.0283-0.0235 0-0.0466 0.00162-0.0693 0.00476-0.111-0.00476-0.246-0.00476-0.425-0.00476h-2.21c-1.68 0-2.52 0-3.16 0.327-0.564 0.288-1.02 0.747-1.31 1.31-0.327 0.642-0.327 1.48-0.327 3.16v6.4c0 1.68 0 2.52 0.327 3.16 0.288 0.564 0.747 1.02 1.31 1.31 0.642 0.327 1.48 0.327 3.16 0.327h2.4c1.68 0 2.52 0 3.16-0.327 0.564-0.288 1.02-0.747 1.31-1.31 0.327-0.642 0.327-1.48 0.327-3.16v-6.21c0-0.178 0-0.313-0.0048-0.425zm-2.91 10.4c-0.45 0.0368-1.03 0.0375-1.89 0.0375h-2.4c-0.857 0-1.44-7e-4 -1.89-0.0375-0.438-0.0358-0.663-0.101-0.819-0.18-0.376-0.192-0.682-0.498-0.874-0.874-0.0797-0.156-0.145-0.381-0.18-0.819-0.0368-0.45-0.0376-1.03-0.0376-1.89v-6.4c0-0.857 7.8e-4 -1.44 0.0376-1.89 0.0358-0.438 0.101-0.663 0.18-0.819 0.192-0.376 0.498-0.682 0.874-0.874 0.156-0.0797 0.381-0.145 0.819-0.18 0.45-0.0368 1.03-0.0376 1.89-0.0376h2.2v3.5c0 0.276 0.224 0.5 0.5 0.5h3.5v6.2c0 0.857-8e-4 1.44-0.0376 1.89-0.0358 0.438-0.101 0.663-0.18 0.819-0.192 0.376-0.498 0.682-0.874 0.874-0.156 0.0796-0.381 0.145-0.819 0.18zm-1.09-13.5 2.59 2.59h-2.59v-2.59z" clip-rule="evenodd" fill="#000" fill-rule="evenodd"/></svg>

<svg xmlns="http://www.w3.org/2000/svg" viewBox="0 0 16 16" fill="none">
  <path fill="#fff"
    d="M5 6.5a.5.5 0 0 1 .5-.5h5a.5.5 0 0 1 0 1h-5a.5.5 0 0 1-.5-.5ZM5.5 9a.5.5 0 0 0 0 1h5a.5.5 0 1 0 0-1h-5ZM5 12.5a.5.5 0 0 1 .5-.5h5a.5.5 0 0 1 0 1h-5a.5.5 0 0 1-.5-.5ZM5.5 3a.5.5 0 0 0 0 1H8V3H5.5Z" />
  <path fill="#fff" fill-rule="evenodd"
    d="M13.995 4.57a.495.495 0 0 0-.023-.236 1.503 1.503 0 0 0-.193-.496c-.093-.152-.223-.281-.482-.54L10.703.702c-.26-.26-.39-.389-.54-.482A1.5 1.5 0 0 0 9.665.03a.5.5 0 0 0-.235-.024C9.319 0 9.184 0 9.006 0H6.8C5.12 0 4.28 0 3.638.327a3 3 0 0 0-1.311 1.311C2 2.28 2 3.12 2 4.8v6.4c0 1.68 0 2.52.327 3.162a3 3 0 0 0 1.311 1.311C4.28 16 5.12 16 6.8 16h2.4c1.68 0 2.52 0 3.162-.327a3 3 0 0 0 1.311-1.31C14 13.72 14 12.88 14 11.2V4.994c0-.178 0-.313-.005-.424ZM11.09 14.963C10.639 15 10.057 15 9.2 15H6.8c-.857 0-1.439 0-1.889-.037-.438-.036-.663-.101-.819-.18a2 2 0 0 1-.874-.875c-.08-.156-.145-.38-.18-.819C3 12.64 3 12.057 3 11.2V4.8c0-.856 0-1.439.038-1.889.035-.438.1-.662.18-.819a2 2 0 0 1 .874-.874c.156-.08.38-.144.819-.18C5.361 1 5.943 1 6.8 1H9v3.5a.5.5 0 0 0 .5.5H13v6.2c0 .857 0 1.44-.038 1.89-.035.438-.1.662-.18.818a2 2 0 0 1-.874.874c-.156.08-.38.145-.819.18ZM10 1.414 12.586 4H10V1.414Z"
    clip-rule="evenodd" />
</svg>
